resources/svg/restroom.svg

<svg xmlns="http://www.w3.org/2000/svg" viewBox="0 0 24 24" fill="currentColor"><path fill="none" stroke="currentColor" stroke-linecap="round" stroke-width="2" d="M6,11 L18,11 M6,3 L18,3 M12,16 C14.7614237,16 17,13.7614237 17,11 C17,11 7,11 7,11 C7,13.7614237 9.23857625,16 12,16 Z M7,3 L17,3 L17,11 L7,11 L7,3 Z M7,6 L9.5,6 M14.5,15.5 L16,21.5 L8,21.5 L9.5,15.5"/></svg>

<svg viewBox="0 0 24 24"><path fill="none" stroke="currentColor" stroke-linecap="round" stroke-width="2" d="M6 11h12M6 3h12m-6 13a5 5 0 0 0 5-5H7a5 5 0 0 0 5 5zM7 3h10v8H7V3zm0 3h2.5m5 9.5l1.5 6H8l1.5-6"/></svg>
